X: 23745
T: Little Bird
R: hornpipe
M: 4/4
K: Fmajor
FG|A4-A4|-A2 GA cAGF|d2 c2-c4|-c4 f3e|
d2 c2-c4|-cAcd A2GF|A2 G2-G4|-G4-G2 FG|
A4-A4|-A2 GA cAGF|d2 c2-c4|-c4 f3e|
d2 c2-c4|-cAcd A2GF|F4-F4-|1 -F4-F2 FG:|2 F4-FGAc||
d4-d4|-d4 f3e|d2 c2-c4|-c4-cAcd|
A2 G2-G4|-G4 -GFGA|F4-F4|-F4-FGAc|
d4-d4|-d4 f3e|d2 c2-c4|-c4-AGFD|
A2 G2-G4|-G4 -GFGA|F4-F4-|1 -F4-FGAc:|2 F4-F2 FG||

